X: 1
T: Kuppari  [G]
M: 2/4
L: 1/16
K: G
%Q: 1/4=116
[| "G"G2GG B2G2 | "D7"F2D2 D4 | d2d2 eedc | "G"B2G2 G4 |]
|: "G"B2dd c2B2 | "Am"A2E2 E4 | "D7"DDDD E2FD | "G"G2G2 G4 :|
